X:265
T:Reel 265
M:4/4
K:Dmaj
L:1/8
DEFG ABAF| (3EFG AF GECE|DEFG AGAF|GEcE DDD2:|d2dB A2AF|GFEG FDDC|DEFG ABAF|GEAE D2D2|dBAF A2AF|G2GE FDEC|DEFG ABAF|GBAG FDD2|
